( Made using CamBam - http://www.cambam.co.uk )
( Effector_Plate_2 10/21/2015 12:22:57 AM )
( T0 : 3.175 )
G21 G90 G64 G40
G0 Z3.0
( T0 : 3.175 )
T0 M6
( Drill Holes )
G17
M3 S1000
G0 X31.0668 Y70.6025
G0 Z3.0
G0 X31.0793 Y70.6025
G0 Z0.5
G1 F6.0 Z0.0
G2 F350.0 X31.0605 Y70.5916 Z-0.1333 I-0.0125 J0.0
G2 Y70.6133 Z-0.2667 I0.0062 J0.0108
G2 X31.0793 Y70.6025 Z-0.4 I0.0062 J-0.0108
G2 X31.0605 Y70.5916 Z-0.5333 I-0.0125 J0.0
G2 Y70.6133 Z-0.6667 I0.0062 J0.0108
G2 X31.0793 Y70.6025 Z-0.8 I0.0062 J-0.0108
G2 X31.0605 Y70.5916 Z-0.9333 I-0.0125 J0.0
G2 Y70.6133 Z-1.0667 I0.0062 J0.0108
G2 X31.0793 Y70.6025 Z-1.2 I0.0062 J-0.0108
G2 X31.0605 Y70.5916 Z-1.3333 I-0.0125 J0.0
G2 Y70.6133 Z-1.4667 I0.0062 J0.0108
G2 X31.0793 Y70.6025 Z-1.6 I0.0062 J-0.0108
G2 X31.0605 Y70.5916 Z-1.7333 I-0.0125 J0.0
G2 Y70.6133 Z-1.8667 I0.0062 J0.0108
G2 X31.0793 Y70.6025 Z-2.0 I0.0062 J-0.0108
G2 X31.0605 Y70.5916 Z-2.1333 I-0.0125 J0.0
G2 Y70.6133 Z-2.2667 I0.0062 J0.0108
G2 X31.0793 Y70.6025 Z-2.4 I0.0062 J-0.0108
G2 X31.0605 Y70.5916 Z-2.5333 I-0.0125 J0.0
G2 Y70.6133 Z-2.6667 I0.0062 J0.0108
G2 X31.0793 Y70.6025 Z-2.8 I0.0062 J-0.0108
G2 X31.0605 Y70.5916 Z-2.9333 I-0.0125 J0.0
G2 Y70.6133 Z-3.0667 I0.0062 J0.0108
G2 X31.0793 Y70.6025 Z-3.2 I0.0062 J-0.0108
G2 X31.0605 Y70.5916 Z-3.3333 I-0.0125 J0.0
G2 Y70.6133 Z-3.4667 I0.0062 J0.0108
G2 X31.0668 Y70.615 Z-3.5 I0.0062 J-0.0108
G2 X31.0776 Y70.5962 I0.0 J-0.0125
G2 X31.0559 I-0.0108 J0.0062
G2 X31.0668 Y70.615 I0.0108 J0.0062
G0 Z3.0
G0 X50.9457 Y70.6025
G0 Z0.5
G1 F6.0 Z0.0
G2 F350.0 X50.927 Y70.5916 Z-0.1333 I-0.0125 J0.0
G2 Y70.6133 Z-0.2667 I0.0062 J0.0108
G2 X50.9457 Y70.6025 Z-0.4 I0.0062 J-0.0108
G2 X50.927 Y70.5916 Z-0.5333 I-0.0125 J0.0
G2 Y70.6133 Z-0.6667 I0.0062 J0.0108
G2 X50.9457 Y70.6025 Z-0.8 I0.0062 J-0.0108
G2 X50.927 Y70.5916 Z-0.9333 I-0.0125 J0.0
G2 Y70.6133 Z-1.0667 I0.0062 J0.0108
G2 X50.9457 Y70.6025 Z-1.2 I0.0062 J-0.0108
G2 X50.927 Y70.5916 Z-1.3333 I-0.0125 J0.0
G2 Y70.6133 Z-1.4667 I0.0062 J0.0108
G2 X50.9457 Y70.6025 Z-1.6 I0.0062 J-0.0108
G2 X50.927 Y70.5916 Z-1.7333 I-0.0125 J0.0
G2 Y70.6133 Z-1.8667 I0.0062 J0.0108
G2 X50.9457 Y70.6025 Z-2.0 I0.0062 J-0.0108
G2 X50.927 Y70.5916 Z-2.1333 I-0.0125 J0.0
G2 Y70.6133 Z-2.2667 I0.0062 J0.0108
G2 X50.9457 Y70.6025 Z-2.4 I0.0062 J-0.0108
G2 X50.927 Y70.5916 Z-2.5333 I-0.0125 J0.0
G2 Y70.6133 Z-2.6667 I0.0062 J0.0108
G2 X50.9457 Y70.6025 Z-2.8 I0.0062 J-0.0108
G2 X50.927 Y70.5916 Z-2.9333 I-0.0125 J0.0
G2 Y70.6133 Z-3.0667 I0.0062 J0.0108
G2 X50.9457 Y70.6025 Z-3.2 I0.0062 J-0.0108
G2 X50.927 Y70.5916 Z-3.3333 I-0.0125 J0.0
G2 Y70.6133 Z-3.4667 I0.0062 J0.0108
G2 X50.9332 Y70.615 Z-3.5 I0.0062 J-0.0108
G2 X50.9441 Y70.5962 I0.0 J-0.0125
G2 X50.9224 I-0.0108 J0.0062
G2 X50.9332 Y70.615 I0.0108 J0.0062
G0 Z3.0
G0 X65.038 Y65.2228
G0 Z0.5
G1 F6.0 Z0.0
G2 F350.0 X65.0193 Y65.212 Z-0.1333 I-0.0125 J0.0
G2 Y65.2336 Z-0.2667 I0.0062 J0.0108
G2 X65.038 Y65.2228 Z-0.4 I0.0062 J-0.0108
G2 X65.0193 Y65.212 Z-0.5333 I-0.0125 J0.0
G2 Y65.2336 Z-0.6667 I0.0062 J0.0108
G2 X65.038 Y65.2228 Z-0.8 I0.0062 J-0.0108
G2 X65.0193 Y65.212 Z-0.9333 I-0.0125 J0.0
G2 Y65.2336 Z-1.0667 I0.0062 J0.0108
G2 X65.038 Y65.2228 Z-1.2 I0.0062 J-0.0108
G2 X65.0193 Y65.212 Z-1.3333 I-0.0125 J0.0
G2 Y65.2336 Z-1.4667 I0.0062 J0.0108
G2 X65.038 Y65.2228 Z-1.6 I0.0062 J-0.0108
G2 X65.0193 Y65.212 Z-1.7333 I-0.0125 J0.0
G2 Y65.2336 Z-1.8667 I0.0062 J0.0108
G2 X65.038 Y65.2228 Z-2.0 I0.0062 J-0.0108
G2 X65.0193 Y65.212 Z-2.1333 I-0.0125 J0.0
G2 Y65.2336 Z-2.2667 I0.0062 J0.0108
G2 X65.038 Y65.2228 Z-2.4 I0.0062 J-0.0108
G2 X65.0193 Y65.212 Z-2.5333 I-0.0125 J0.0
G2 Y65.2336 Z-2.6667 I0.0062 J0.0108
G2 X65.038 Y65.2228 Z-2.8 I0.0062 J-0.0108
G2 X65.0193 Y65.212 Z-2.9333 I-0.0125 J0.0
G2 Y65.2336 Z-3.0667 I0.0062 J0.0108
G2 X65.038 Y65.2228 Z-3.2 I0.0062 J-0.0108
G2 X65.0193 Y65.212 Z-3.3333 I-0.0125 J0.0
G2 Y65.2336 Z-3.4667 I0.0062 J0.0108
G2 X65.0255 Y65.2353 Z-3.5 I0.0062 J-0.0108
G2 X65.0364 Y65.2165 I0.0 J-0.0125
G2 X65.0147 I-0.0108 J0.0062
G2 X65.0255 Y65.2353 I0.0108 J0.0062
G0 Z3.0
G0 X82.3933 Y44.5396
G0 Z0.5
G1 F6.0 Z0.0
G2 F350.0 X82.3746 Y44.5288 Z-0.1333 I-0.0125 J0.0
G2 Y44.5504 Z-0.2667 I0.0062 J0.0108
G2 X82.3933 Y44.5396 Z-0.4 I0.0062 J-0.0108
G2 X82.3746 Y44.5288 Z-0.5333 I-0.0125 J0.0
G2 Y44.5504 Z-0.6667 I0.0062 J0.0108
G2 X82.3933 Y44.5396 Z-0.8 I0.0062 J-0.0108
G2 X82.3746 Y44.5288 Z-0.9333 I-0.0125 J0.0
G2 Y44.5504 Z-1.0667 I0.0062 J0.0108
G2 X82.3933 Y44.5396 Z-1.2 I0.0062 J-0.0108
G2 X82.3746 Y44.5288 Z-1.3333 I-0.0125 J0.0
G2 Y44.5504 Z-1.4667 I0.0062 J0.0108
G2 X82.3933 Y44.5396 Z-1.6 I0.0062 J-0.0108
G2 X82.3746 Y44.5288 Z-1.7333 I-0.0125 J0.0
G2 Y44.5504 Z-1.8667 I0.0062 J0.0108
G2 X82.3933 Y44.5396 Z-2.0 I0.0062 J-0.0108
G2 X82.3746 Y44.5288 Z-2.1333 I-0.0125 J0.0
G2 Y44.5504 Z-2.2667 I0.0062 J0.0108
G2 X82.3933 Y44.5396 Z-2.4 I0.0062 J-0.0108
G2 X82.3746 Y44.5288 Z-2.5333 I-0.0125 J0.0
G2 Y44.5504 Z-2.6667 I0.0062 J0.0108
G2 X82.3933 Y44.5396 Z-2.8 I0.0062 J-0.0108
G2 X82.3746 Y44.5288 Z-2.9333 I-0.0125 J0.0
G2 Y44.5504 Z-3.0667 I0.0062 J0.0108
G2 X82.3933 Y44.5396 Z-3.2 I0.0062 J-0.0108
G2 X82.3746 Y44.5288 Z-3.3333 I-0.0125 J0.0
G2 Y44.5504 Z-3.4667 I0.0062 J0.0108
G2 X82.3808 Y44.5521 Z-3.5 I0.0062 J-0.0108
G2 X82.3916 Y44.5333 I0.0 J-0.0125
G2 X82.37 I-0.0108 J0.0062
G2 X82.3808 Y44.5521 I0.0108 J0.0062
G0 Z3.0
G0 X75.9457 Y27.3012
G0 Z0.5
G1 F6.0 Z0.0
G2 F350.0 X75.927 Y27.2904 Z-0.1333 I-0.0125 J0.0
G2 Y27.312 Z-0.2667 I0.0062 J0.0108
G2 X75.9457 Y27.3012 Z-0.4 I0.0062 J-0.0108
G2 X75.927 Y27.2904 Z-0.5333 I-0.0125 J0.0
G2 Y27.312 Z-0.6667 I0.0062 J0.0108
G2 X75.9457 Y27.3012 Z-0.8 I0.0062 J-0.0108
G2 X75.927 Y27.2904 Z-0.9333 I-0.0125 J0.0
G2 Y27.312 Z-1.0667 I0.0062 J0.0108
G2 X75.9457 Y27.3012 Z-1.2 I0.0062 J-0.0108
G2 X75.927 Y27.2904 Z-1.3333 I-0.0125 J0.0
G2 Y27.312 Z-1.4667 I0.0062 J0.0108
G2 X75.9457 Y27.3012 Z-1.6 I0.0062 J-0.0108
G2 X75.927 Y27.2904 Z-1.7333 I-0.0125 J0.0
G2 Y27.312 Z-1.8667 I0.0062 J0.0108
G2 X75.9457 Y27.3012 Z-2.0 I0.0062 J-0.0108
G2 X75.927 Y27.2904 Z-2.1333 I-0.0125 J0.0
G2 Y27.312 Z-2.2667 I0.0062 J0.0108
G2 X75.9457 Y27.3012 Z-2.4 I0.0062 J-0.0108
G2 X75.927 Y27.2904 Z-2.5333 I-0.0125 J0.0
G2 Y27.312 Z-2.6667 I0.0062 J0.0108
G2 X75.9457 Y27.3012 Z-2.8 I0.0062 J-0.0108
G2 X75.927 Y27.2904 Z-2.9333 I-0.0125 J0.0
G2 Y27.312 Z-3.0667 I0.0062 J0.0108
G2 X75.9457 Y27.3012 Z-3.2 I0.0062 J-0.0108
G2 X75.927 Y27.2904 Z-3.3333 I-0.0125 J0.0
G2 Y27.312 Z-3.4667 I0.0062 J0.0108
G2 X75.9332 Y27.3137 Z-3.5 I0.0062 J-0.0108
G2 X75.9441 Y27.2949 I0.0 J-0.0125
G2 X75.9224 I-0.0108 J0.0062
G2 X75.9332 Y27.3137 I0.0108 J0.0062
G0 Z3.0
G0 X60.2146 Y18.2203
G0 Z0.5
G1 F6.0 Z0.0
G2 F350.0 X60.1959 Y18.2095 Z-0.1333 I-0.0125 J0.0
G2 Y18.2312 Z-0.2667 I0.0062 J0.0108
G2 X60.2146 Y18.2203 Z-0.4 I0.0062 J-0.0108
G2 X60.1959 Y18.2095 Z-0.5333 I-0.0125 J0.0
G2 Y18.2312 Z-0.6667 I0.0062 J0.0108
G2 X60.2146 Y18.2203 Z-0.8 I0.0062 J-0.0108
G2 X60.1959 Y18.2095 Z-0.9333 I-0.0125 J0.0
G2 Y18.2312 Z-1.0667 I0.0062 J0.0108
G2 X60.2146 Y18.2203 Z-1.2 I0.0062 J-0.0108
G2 X60.1959 Y18.2095 Z-1.3333 I-0.0125 J0.0
G2 Y18.2312 Z-1.4667 I0.0062 J0.0108
G2 X60.2146 Y18.2203 Z-1.6 I0.0062 J-0.0108
G2 X60.1959 Y18.2095 Z-1.7333 I-0.0125 J0.0
G2 Y18.2312 Z-1.8667 I0.0062 J0.0108
G2 X60.2146 Y18.2203 Z-2.0 I0.0062 J-0.0108
G2 X60.1959 Y18.2095 Z-2.1333 I-0.0125 J0.0
G2 Y18.2312 Z-2.2667 I0.0062 J0.0108
G2 X60.2146 Y18.2203 Z-2.4 I0.0062 J-0.0108
G2 X60.1959 Y18.2095 Z-2.5333 I-0.0125 J0.0
G2 Y18.2312 Z-2.6667 I0.0062 J0.0108
G2 X60.2146 Y18.2203 Z-2.8 I0.0062 J-0.0108
G2 X60.1959 Y18.2095 Z-2.9333 I-0.0125 J0.0
G2 Y18.2312 Z-3.0667 I0.0062 J0.0108
G2 X60.2146 Y18.2203 Z-3.2 I0.0062 J-0.0108
G2 X60.1959 Y18.2095 Z-3.3333 I-0.0125 J0.0
G2 Y18.2312 Z-3.4667 I0.0062 J0.0108
G2 X60.2021 Y18.2328 Z-3.5 I0.0062 J-0.0108
G2 X60.2129 Y18.2141 I0.0 J-0.0125
G2 X60.1913 I-0.0108 J0.0062
G2 X60.2021 Y18.2328 I0.0108 J0.0062
G0 Z3.0
G0 X66.0125 Y10.0963
G0 Z0.5
G1 F6.0 Z0.0
G2 F350.0 X65.9938 Y10.0855 Z-0.1333 I-0.0125 J0.0
G2 Y10.1072 Z-0.2667 I0.0062 J0.0108
G2 X66.0125 Y10.0963 Z-0.4 I0.0062 J-0.0108
G2 X65.9938 Y10.0855 Z-0.5333 I-0.0125 J0.0
G2 Y10.1072 Z-0.6667 I0.0062 J0.0108
G2 X66.0125 Y10.0963 Z-0.8 I0.0062 J-0.0108
G2 X65.9938 Y10.0855 Z-0.9333 I-0.0125 J0.0
G2 Y10.1072 Z-1.0667 I0.0062 J0.0108
G2 X66.0125 Y10.0963 Z-1.2 I0.0062 J-0.0108
G2 X65.9938 Y10.0855 Z-1.3333 I-0.0125 J0.0
G2 Y10.1072 Z-1.4667 I0.0062 J0.0108
G2 X66.0125 Y10.0963 Z-1.6 I0.0062 J-0.0108
G2 X65.9938 Y10.0855 Z-1.7333 I-0.0125 J0.0
G2 Y10.1072 Z-1.8667 I0.0062 J0.0108
G2 X66.0125 Y10.0963 Z-2.0 I0.0062 J-0.0108
G2 X65.9938 Y10.0855 Z-2.1333 I-0.0125 J0.0
G2 Y10.1072 Z-2.2667 I0.0062 J0.0108
G2 X66.0125 Y10.0963 Z-2.4 I0.0062 J-0.0108
G2 X65.9938 Y10.0855 Z-2.5333 I-0.0125 J0.0
G2 Y10.1072 Z-2.6667 I0.0062 J0.0108
G2 X66.0125 Y10.0963 Z-2.8 I0.0062 J-0.0108
G2 X65.9938 Y10.0855 Z-2.9333 I-0.0125 J0.0
G2 Y10.1072 Z-3.0667 I0.0062 J0.0108
G2 X66.0125 Y10.0963 Z-3.2 I0.0062 J-0.0108
G2 X65.9938 Y10.0855 Z-3.3333 I-0.0125 J0.0
G2 Y10.1072 Z-3.4667 I0.0062 J0.0108
G2 X66.0 Y10.1088 Z-3.5 I0.0062 J-0.0108
G2 X66.0108 Y10.0901 I0.0 J-0.0125
G2 X65.9892 I-0.0108 J0.0062
G2 X66.0 Y10.1088 I0.0108 J0.0062
G0 Z3.0
G0 X42.6472 Y8.6607
G0 Z0.5
G1 F6.0 Z0.0
G2 F350.0 X42.6285 Y8.6499 Z-0.1333 I-0.0125 J0.0
G2 Y8.6716 Z-0.2667 I0.0062 J0.0108
G2 X42.6472 Y8.6607 Z-0.4 I0.0062 J-0.0108
G2 X42.6285 Y8.6499 Z-0.5333 I-0.0125 J0.0
G2 Y8.6716 Z-0.6667 I0.0062 J0.0108
G2 X42.6472 Y8.6607 Z-0.8 I0.0062 J-0.0108
G2 X42.6285 Y8.6499 Z-0.9333 I-0.0125 J0.0
G2 Y8.6716 Z-1.0667 I0.0062 J0.0108
G2 X42.6472 Y8.6607 Z-1.2 I0.0062 J-0.0108
G2 X42.6285 Y8.6499 Z-1.3333 I-0.0125 J0.0
G2 Y8.6716 Z-1.4667 I0.0062 J0.0108
G2 X42.6472 Y8.6607 Z-1.6 I0.0062 J-0.0108
G2 X42.6285 Y8.6499 Z-1.7333 I-0.0125 J0.0
G2 Y8.6716 Z-1.8667 I0.0062 J0.0108
G2 X42.6472 Y8.6607 Z-2.0 I0.0062 J-0.0108
G2 X42.6285 Y8.6499 Z-2.1333 I-0.0125 J0.0
G2 Y8.6716 Z-2.2667 I0.0062 J0.0108
G2 X42.6472 Y8.6607 Z-2.4 I0.0062 J-0.0108
G2 X42.6285 Y8.6499 Z-2.5333 I-0.0125 J0.0
G2 Y8.6716 Z-2.6667 I0.0062 J0.0108
G2 X42.6472 Y8.6607 Z-2.8 I0.0062 J-0.0108
G2 X42.6285 Y8.6499 Z-2.9333 I-0.0125 J0.0
G2 Y8.6716 Z-3.0667 I0.0062 J0.0108
G2 X42.6472 Y8.6607 Z-3.2 I0.0062 J-0.0108
G2 X42.6285 Y8.6499 Z-3.3333 I-0.0125 J0.0
G2 Y8.6716 Z-3.4667 I0.0062 J0.0108
G2 X42.6347 Y8.6732 Z-3.5 I0.0062 J-0.0108
G2 X42.6455 Y8.6545 I0.0 J-0.0125
G2 X42.6239 I-0.0108 J0.0062
G2 X42.6347 Y8.6732 I0.0108 J0.0062
G0 Z3.0
G0 X16.0125 Y10.0963
G0 Z0.5
G1 F6.0 Z0.0
G2 F350.0 X15.9938 Y10.0855 Z-0.1333 I-0.0125 J0.0
G2 Y10.1072 Z-0.2667 I0.0062 J0.0108
G2 X16.0125 Y10.0963 Z-0.4 I0.0062 J-0.0108
G2 X15.9938 Y10.0855 Z-0.5333 I-0.0125 J0.0
G2 Y10.1072 Z-0.6667 I0.0062 J0.0108
G2 X16.0125 Y10.0963 Z-0.8 I0.0062 J-0.0108
G2 X15.9938 Y10.0855 Z-0.9333 I-0.0125 J0.0
G2 Y10.1072 Z-1.0667 I0.0062 J0.0108
G2 X16.0125 Y10.0963 Z-1.2 I0.0062 J-0.0108
G2 X15.9938 Y10.0855 Z-1.3333 I-0.0125 J0.0
G2 Y10.1072 Z-1.4667 I0.0062 J0.0108
G2 X16.0125 Y10.0963 Z-1.6 I0.0062 J-0.0108
G2 X15.9938 Y10.0855 Z-1.7333 I-0.0125 J0.0
G2 Y10.1072 Z-1.8667 I0.0062 J0.0108
G2 X16.0125 Y10.0963 Z-2.0 I0.0062 J-0.0108
G2 X15.9938 Y10.0855 Z-2.1333 I-0.0125 J0.0
G2 Y10.1072 Z-2.2667 I0.0062 J0.0108
G2 X16.0125 Y10.0963 Z-2.4 I0.0062 J-0.0108
G2 X15.9938 Y10.0855 Z-2.5333 I-0.0125 J0.0
G2 Y10.1072 Z-2.6667 I0.0062 J0.0108
G2 X16.0125 Y10.0963 Z-2.8 I0.0062 J-0.0108
G2 X15.9938 Y10.0855 Z-2.9333 I-0.0125 J0.0
G2 Y10.1072 Z-3.0667 I0.0062 J0.0108
G2 X16.0125 Y10.0963 Z-3.2 I0.0062 J-0.0108
G2 X15.9938 Y10.0855 Z-3.3333 I-0.0125 J0.0
G2 Y10.1072 Z-3.4667 I0.0062 J0.0108
G2 X16.0 Y10.1088 Z-3.5 I0.0062 J-0.0108
G2 X16.0108 Y10.0901 I0.0 J-0.0125
G2 X15.9892 I-0.0108 J0.0062
G2 X16.0 Y10.1088 I0.0108 J0.0062
G0 Z3.0
G0 X6.0793 Y27.3012
G0 Z0.5
G1 F6.0 Z0.0
G2 F350.0 X6.0605 Y27.2904 Z-0.1333 I-0.0125 J0.0
G2 Y27.312 Z-0.2667 I0.0062 J0.0108
G2 X6.0793 Y27.3012 Z-0.4 I0.0062 J-0.0108
G2 X6.0605 Y27.2904 Z-0.5333 I-0.0125 J0.0
G2 Y27.312 Z-0.6667 I0.0062 J0.0108
G2 X6.0793 Y27.3012 Z-0.8 I0.0062 J-0.0108
G2 X6.0605 Y27.2904 Z-0.9333 I-0.0125 J0.0
G2 Y27.312 Z-1.0667 I0.0062 J0.0108
G2 X6.0793 Y27.3012 Z-1.2 I0.0062 J-0.0108
G2 X6.0605 Y27.2904 Z-1.3333 I-0.0125 J0.0
G2 Y27.312 Z-1.4667 I0.0062 J0.0108
G2 X6.0793 Y27.3012 Z-1.6 I0.0062 J-0.0108
G2 X6.0605 Y27.2904 Z-1.7333 I-0.0125 J0.0
G2 Y27.312 Z-1.8667 I0.0062 J0.0108
G2 X6.0793 Y27.3012 Z-2.0 I0.0062 J-0.0108
G2 X6.0605 Y27.2904 Z-2.1333 I-0.0125 J0.0
G2 Y27.312 Z-2.2667 I0.0062 J0.0108
G2 X6.0793 Y27.3012 Z-2.4 I0.0062 J-0.0108
G2 X6.0605 Y27.2904 Z-2.5333 I-0.0125 J0.0
G2 Y27.312 Z-2.6667 I0.0062 J0.0108
G2 X6.0793 Y27.3012 Z-2.8 I0.0062 J-0.0108
G2 X6.0605 Y27.2904 Z-2.9333 I-0.0125 J0.0
G2 Y27.312 Z-3.0667 I0.0062 J0.0108
G2 X6.0793 Y27.3012 Z-3.2 I0.0062 J-0.0108
G2 X6.0605 Y27.2904 Z-3.3333 I-0.0125 J0.0
G2 Y27.312 Z-3.4667 I0.0062 J0.0108
G2 X6.0668 Y27.3137 Z-3.5 I0.0062 J-0.0108
G2 X6.0776 Y27.2949 I0.0 J-0.0125
G2 X6.0559 I-0.0108 J0.0062
G2 X6.0668 Y27.3137 I0.0108 J0.0062
( Bolt Holes )
S1000
G0 Z2.0
G0 X19.6638 Y54.3301
G0 Z0.5
G1 F5.0 Z0.0
G2 F350.0 X19.045 Y53.9729 Z-0.1333 I-0.4125 J0.0
G2 Y54.6874 Z-0.2667 I0.2063 J0.3572
G2 X19.6638 Y54.3301 Z-0.4 I0.2063 J-0.3572
G2 X19.045 Y53.9729 Z-0.5333 I-0.4125 J0.0
G2 Y54.6874 Z-0.6667 I0.2063 J0.3572
G2 X19.6638 Y54.3301 Z-0.8 I0.2063 J-0.3572
G2 X19.045 Y53.9729 Z-0.9333 I-0.4125 J0.0
G2 Y54.6874 Z-1.0667 I0.2063 J0.3572
G2 X19.6638 Y54.3301 Z-1.2 I0.2063 J-0.3572
G2 X19.045 Y53.9729 Z-1.3333 I-0.4125 J0.0
G2 Y54.6874 Z-1.4667 I0.2063 J0.3572
G2 X19.6638 Y54.3301 Z-1.6 I0.2063 J-0.3572
G2 X19.045 Y53.9729 Z-1.7333 I-0.4125 J0.0
G2 Y54.6874 Z-1.8667 I0.2063 J0.3572
G2 X19.6638 Y54.3301 Z-2.0 I0.2063 J-0.3572
G2 X19.045 Y53.9729 Z-2.1333 I-0.4125 J0.0
G2 Y54.6874 Z-2.2667 I0.2063 J0.3572
G2 X19.6638 Y54.3301 Z-2.4 I0.2063 J-0.3572
G2 X19.045 Y53.9729 Z-2.5333 I-0.4125 J0.0
G2 Y54.6874 Z-2.6667 I0.2063 J0.3572
G2 X19.6638 Y54.3301 Z-2.8 I0.2063 J-0.3572
G2 X19.045 Y53.9729 Z-2.9333 I-0.4125 J0.0
G2 Y54.6874 Z-3.0667 I0.2063 J0.3572
G2 X19.6638 Y54.3301 Z-3.2 I0.2063 J-0.3572
G2 X19.045 Y53.9729 Z-3.3 I-0.4125 J0.0
G2 Y54.6874 Z-3.4 I0.2063 J0.3572
G2 X19.6638 Y54.3301 Z-3.5 I0.2063 J-0.3572
G2 X19.045 Y53.9729 I-0.4125 J0.0
G2 Y54.6874 I0.2063 J0.3572
G2 X19.6638 Y54.3301 I0.2063 J-0.3572
G0 Z2.0
G0 X14.4699 Y46.0197
G0 Z0.5
G1 F5.0 Z0.0
G2 F350.0 X14.6638 Y45.6699 Z-0.0644 I-0.2186 J-0.3498
G2 X14.045 Y45.3126 Z-0.1978 I-0.4125 J0.0
G2 Y46.0271 Z-0.3311 I0.2063 J0.3572
G2 X14.4699 Y46.0197 Z-0.4 I0.2063 J-0.3572
G2 X14.6638 Y45.6699 Z-0.4644 I-0.2186 J-0.3498
G2 X14.045 Y45.3126 Z-0.5978 I-0.4125 J0.0
G2 Y46.0271 Z-0.7311 I0.2063 J0.3572
G2 X14.4699 Y46.0197 Z-0.8 I0.2063 J-0.3572
G2 X14.6638 Y45.6699 Z-0.8644 I-0.2186 J-0.3498
G2 X14.045 Y45.3126 Z-0.9978 I-0.4125 J0.0
G2 Y46.0271 Z-1.1311 I0.2063 J0.3572
G2 X14.4699 Y46.0197 Z-1.2 I0.2063 J-0.3572
G2 X14.6638 Y45.6699 Z-1.2644 I-0.2186 J-0.3498
G2 X14.045 Y45.3126 Z-1.3978 I-0.4125 J0.0
G2 Y46.0271 Z-1.5311 I0.2063 J0.3572
G2 X14.4699 Y46.0197 Z-1.6 I0.2063 J-0.3572
G2 X14.6638 Y45.6699 Z-1.6644 I-0.2186 J-0.3498
G2 X14.045 Y45.3126 Z-1.7978 I-0.4125 J0.0
G2 Y46.0271 Z-1.9311 I0.2063 J0.3572
G2 X14.4699 Y46.0197 Z-2.0 I0.2063 J-0.3572
G2 X14.6638 Y45.6699 Z-2.0644 I-0.2186 J-0.3498
G2 X14.045 Y45.3126 Z-2.1978 I-0.4125 J0.0
G2 Y46.0271 Z-2.3311 I0.2063 J0.3572
G2 X14.4699 Y46.0197 Z-2.4 I0.2063 J-0.3572
G2 X14.6638 Y45.6699 Z-2.4644 I-0.2186 J-0.3498
G2 X14.045 Y45.3126 Z-2.5978 I-0.4125 J0.0
G2 Y46.0271 Z-2.7311 I0.2063 J0.3572
G2 X14.4699 Y46.0197 Z-2.8 I0.2063 J-0.3572
G2 X14.6638 Y45.6699 Z-2.8644 I-0.2186 J-0.3498
G2 X14.045 Y45.3126 Z-2.9978 I-0.4125 J0.0
G2 Y46.0271 Z-3.1311 I0.2063 J0.3572
G2 X14.4699 Y46.0197 Z-3.2 I0.2063 J-0.3572
G2 X14.6638 Y45.6699 Z-3.2483 I-0.2186 J-0.3498
G2 X14.045 Y45.3126 Z-3.3483 I-0.4125 J0.0
G2 Y46.0271 Z-3.4483 I0.2063 J0.3572
G2 X14.4699 Y46.0197 Z-3.5 I0.2063 J-0.3572
G2 X14.6638 Y45.6699 I-0.2186 J-0.3498
G2 X14.045 Y45.3126 I-0.4125 J0.0
G2 Y46.0271 I0.2063 J0.3572
G2 X14.4699 Y46.0197 I0.2063 J-0.3572
( Inside )
S1000
G0 Z2.0
G0 X37.7872 Y43.7205
G0 Z0.5
G1 F10.0 Z0.0
G2 F700.0 X42.0054 Y35.9689 Z-0.1366 I2.1091 J-3.8758
G1 X38.2356 Y33.9175 Z-0.1789
G3 X37.4492 Y32.8871 Z-0.1921 I0.7588 J-1.3944
G2 X32.7252 Y41.5684 Z-0.5445 I-7.215 J1.6998
G3 X34.0174 Y41.6691 Z-0.5577 I0.5335 J1.4952
G1 X37.7872 Y43.7205 Z-0.6
G2 X42.0054 Y35.9689 Z-0.7366 I2.1091 J-3.8758
G1 X38.2356 Y33.9175 Z-0.7789
G3 X37.4492 Y32.8871 Z-0.7921 I0.7588 J-1.3944
G2 X32.7252 Y41.5684 Z-1.1445 I-7.215 J1.6998
G3 X34.0174 Y41.6691 Z-1.1577 I0.5335 J1.4952
G1 X37.7872 Y43.7205 Z-1.2
G2 X42.0054 Y35.9689 Z-1.3366 I2.1091 J-3.8758
G1 X38.2356 Y33.9175 Z-1.3789
G3 X37.4492 Y32.8871 Z-1.3921 I0.7588 J-1.3944
G2 X32.7252 Y41.5684 Z-1.7445 I-7.215 J1.6998
G3 X34.0174 Y41.6691 Z-1.7577 I0.5335 J1.4952
G1 X37.7872 Y43.7205 Z-1.8
G2 X42.0054 Y35.9689 Z-1.9366 I2.1091 J-3.8758
G1 X38.2356 Y33.9175 Z-1.9789
G3 X37.4492 Y32.8871 Z-1.9921 I0.7588 J-1.3944
G2 X34.1597 Y28.2992 Z-2.0492 I-7.215 J1.6998
G0 Z-2.0
G2 X28.562 Y27.3655 I-3.9254 J6.2878
G1 F10.0 Z-2.1066
G2 F700.0 X23.4342 Y37.5373 Z-2.2346 I1.6723 J7.2214
G0 Z-2.0
G2 X27.5139 Y41.4822 I6.8 J-2.9504
G1 F10.0 Z-2.292
G2 F700.0 X32.7252 Y41.5684 Z-2.3445 I2.7204 J-6.8953
G3 X34.0174 Y41.6691 Z-2.3577 I0.5335 J1.4952
G1 X37.7872 Y43.7205 Z-2.4
G2 X42.0054 Y35.9689 Z-2.5366 I2.1091 J-3.8758
G1 X38.2356 Y33.9175 Z-2.5789
G3 X37.4492 Y32.8871 Z-2.5921 I0.7588 J-1.3944
G2 X34.1597 Y28.2992 Z-2.6492 I-7.215 J1.6998
G0 Z-2.0
G2 X28.562 Y27.3655 I-3.9254 J6.2878
G1 F10.0 Z-2.7066
G2 F700.0 X23.4342 Y37.5373 Z-2.8346 I1.6723 J7.2214
G0 Z-2.0
G2 X27.5139 Y41.4822 I6.8 J-2.9504
G1 F10.0 Z-2.892
G2 F700.0 X32.7252 Y41.5684 Z-2.9445 I2.7204 J-6.8953
G3 X34.0174 Y41.6691 Z-2.9577 I0.5335 J1.4952
G1 X37.7872 Y43.7205 Z-3.0
G2 X42.0054 Y35.9689 Z-3.1366 I2.1091 J-3.8758
G1 X38.2356 Y33.9175 Z-3.1789
G3 X37.4492 Y32.8871 Z-3.1921 I0.7588 J-1.3944
G2 X34.1597 Y28.2992 Z-3.2492 I-7.215 J1.6998
G0 Z-2.0
G2 X28.562 Y27.3655 I-3.9254 J6.2878
G0 Z-2.2066
G1 F10.0 Z-3.3066
G2 F700.0 X23.4342 Y37.5373 Z-3.4346 I1.6723 J7.2214
G0 Z-2.0
G2 X27.5139 Y41.4822 I6.8 J-2.9504
G0 Z-2.392
G1 F10.0 Z-3.492
G2 F700.0 X32.7252 Y41.5684 Z-3.5445 I2.7204 J-6.8953
G3 X34.0174 Y41.6691 Z-3.5577 I0.5335 J1.4952
G1 X37.7872 Y43.7205 Z-3.6
G2 X42.0054 Y35.9689 I2.1091 J-3.8758
G1 X38.2356 Y33.9175
G3 X37.4492 Y32.8871 I0.7588 J-1.3944
G2 X34.1597 Y28.2992 I-7.215 J1.6998
G0 Z-2.0
G2 X28.562 Y27.3655 I-3.9254 J6.2878
G0 Z-2.8066
G1 F10.0 Z-3.6
G2 F700.0 X23.4342 Y37.5373 I1.6723 J7.2214
G0 Z-2.0
G2 X27.5139 Y41.4822 I6.8 J-2.9504
G0 Z-2.992
G1 F10.0 Z-3.6
G2 F700.0 X32.7252 Y41.5684 I2.7204 J-6.8953
G3 X34.0174 Y41.6691 I0.5335 J1.4952
G1 X37.7872 Y43.7205
G0 Z2.0
G0 X66.1471 Y52.5332
G0 Z0.5
G1 F10.0 Z0.0
G2 F700.0 X69.7469 Y61.7336 Z-0.1288 I7.5561 J2.348
G2 X81.6157 Y54.8812 Z-0.3288 I3.9563 J-6.8524
G2 X69.7469 Y48.0288 Z-0.5288 I-7.9125 J0.0
G2 X66.1471 Y52.5332 Z-0.6 I3.9563 J6.8524
G2 X69.7469 Y61.7336 Z-0.7288 I7.5561 J2.348
G2 X81.6157 Y54.8812 Z-0.9288 I3.9563 J-6.8524
G2 X69.7469 Y48.0288 Z-1.1288 I-7.9125 J0.0
G2 X66.1471 Y52.5332 Z-1.2 I3.9563 J6.8524
G2 X69.7469 Y61.7336 Z-1.3288 I7.5561 J2.348
G2 X81.6157 Y54.8812 Z-1.5288 I3.9563 J-6.8524
G2 X69.7469 Y48.0288 Z-1.7288 I-7.9125 J0.0
G2 X66.1471 Y52.5332 Z-1.8 I3.9563 J6.8524
G2 X69.7469 Y61.7336 Z-1.9288 I7.5561 J2.348
G2 X71.1374 Y62.3661 Z-1.9472 I3.9563 J-6.8524
G2 X76.8086 Y62.1588 Z-2.0 I2.5657 J-7.485
G1 F10.0 Z-2.0173
G2 F700.0 X81.4552 Y56.4669 Z-2.1095 I-3.1055 J-7.2776
G0 Z-2.0
G2 X81.6157 Y54.8812 I-7.752 J-1.5857
G2 X80.523 Y50.869 I-7.9125 J0.0
G1 F10.0 Z-2.1796
G2 F700.0 X69.7469 Y48.0288 Z-2.3288 I-6.8198 J4.0122
G2 X66.1471 Y52.5332 Z-2.4 I3.9563 J6.8524
G2 X69.7469 Y61.7336 Z-2.5288 I7.5561 J2.348
G2 X71.1374 Y62.3661 Z-2.5472 I3.9563 J-6.8524
G0 Z-2.0
G2 X76.8086 Y62.1588 I2.5657 J-7.485
G1 F10.0 Z-2.6173
G2 F700.0 X81.4552 Y56.4669 Z-2.7095 I-3.1055 J-7.2776
G0 Z-2.0
G2 X81.6157 Y54.8812 I-7.752 J-1.5857
G2 X80.523 Y50.869 I-7.9125 J0.0
G1 F10.0 Z-2.7796
G2 F700.0 X69.7469 Y48.0288 Z-2.9288 I-6.8198 J4.0122
G2 X66.1471 Y52.5332 Z-3.0 I3.9563 J6.8524
G2 X69.7469 Y61.7336 Z-3.1288 I7.5561 J2.348
G2 X71.1374 Y62.3661 Z-3.1472 I3.9563 J-6.8524
G0 Z-2.0
G2 X76.8086 Y62.1588 I2.5657 J-7.485
G0 Z-2.1173
G1 F10.0 Z-3.2173
G2 F700.0 X81.4552 Y56.4669 Z-3.3095 I-3.1055 J-7.2776
G0 Z-2.0
G2 X81.6157 Y54.8812 I-7.752 J-1.5857
G2 X80.523 Y50.869 I-7.9125 J0.0
G0 Z-2.2796
G1 F10.0 Z-3.3796
G2 F700.0 X69.7469 Y48.0288 Z-3.5288 I-6.8198 J4.0122
G2 X66.1471 Y52.5332 Z-3.6 I3.9563 J6.8524
G2 X69.7469 Y61.7336 I7.5561 J2.348
G2 X71.1374 Y62.3661 I3.9563 J-6.8524
G0 Z-2.0
G2 X76.8086 Y62.1588 I2.5657 J-7.485
G0 Z-2.7173
G1 F10.0 Z-3.6
G2 F700.0 X81.4552 Y56.4669 I-3.1055 J-7.2776
G0 Z-2.0
G2 X81.6157 Y54.8812 I-7.752 J-1.5857
G2 X80.523 Y50.869 I-7.9125 J0.0
G0 Z-2.8796
G1 F10.0 Z-3.6
G2 F700.0 X69.7469 Y48.0288 I-6.8198 J4.0122
G2 X66.1471 Y52.5332 I3.9563 J6.8524
( Outside )
S1000
G0 Z2.0
G0 X13.1554 Y53.0418
G0 Z0.5
G1 F10.0 Z0.0
G2 F800.0 X12.3191 Y51.5932 Z-0.0045 I-0.7343 J-0.5418
G3 X5.8774 Y48.3408 Z-0.0207 I-0.7368 J-6.5462
G1 X0.3004 Y38.6813 Z-0.0444
G3 X-0.5811 Y35.2722 Z-0.052 I5.7049 J-3.2937
G3 X19.5792 Y0.3536 Z-0.1414 I41.5811 J0.7278
G3 X22.9722 Y-0.5875 Z-0.149 I3.3931 J5.6464
G1 X59.0278 Z-0.2255
G3 X62.4208 Y0.3536 Z-0.2331 I0.0 J6.5875
G3 X82.5875 Y36.0358 Z-0.3241 I-21.4208 J35.6464
G2 X84.135 Y38.8965 Z-0.3313 I3.4125 J0.0029
G3 X65.0759 Y71.9077 Z-0.4543 I-10.4318 J15.9847
G2 X61.8247 Y71.9979 Z-0.4615 I-1.5424 J3.044
G3 X20.8397 Y72.3742 Z-0.5525 I-20.8247 J-35.9979
G3 X18.3282 Y69.9062 Z-0.5601 I3.1934 J-5.7617
G1 X12.7512 Y60.2467 Z-0.5838
G3 X13.1554 Y53.0418 Z-0.6 I5.7049 J-3.2937
G2 X12.3191 Y51.5932 Z-0.6045 I-0.7343 J-0.5418
G3 X5.8774 Y48.3408 Z-0.6207 I-0.7368 J-6.5462
G1 X0.3004 Y38.6813 Z-0.6444
G3 X-0.5811 Y35.2722 Z-0.652 I5.7049 J-3.2937
G3 X19.5792 Y0.3536 Z-0.7414 I41.5811 J0.7278
G3 X22.9722 Y-0.5875 Z-0.749 I3.3931 J5.6464
G1 X59.0278 Z-0.8255
G3 X62.4208 Y0.3536 Z-0.8331 I0.0 J6.5875
G3 X82.5875 Y36.0358 Z-0.9241 I-21.4208 J35.6464
G2 X84.135 Y38.8965 Z-0.9313 I3.4125 J0.0029
G3 X65.0759 Y71.9077 Z-1.0543 I-10.4318 J15.9847
G2 X61.8247 Y71.9979 Z-1.0615 I-1.5424 J3.044
G3 X20.8397 Y72.3742 Z-1.1525 I-20.8247 J-35.9979
G3 X18.3282 Y69.9062 Z-1.1601 I3.1934 J-5.7617
G1 X12.7512 Y60.2467 Z-1.1838
G3 X13.1554 Y53.0418 Z-1.2 I5.7049 J-3.2937
G2 X12.3191 Y51.5932 Z-1.2045 I-0.7343 J-0.5418
G3 X5.8774 Y48.3408 Z-1.2207 I-0.7368 J-6.5462
G1 X0.3004 Y38.6813 Z-1.2444
G3 X-0.5811 Y35.2722 Z-1.252 I5.7049 J-3.2937
G3 X19.5792 Y0.3536 Z-1.3414 I41.5811 J0.7278
G3 X22.9722 Y-0.5875 Z-1.349 I3.3931 J5.6464
G1 X59.0278 Z-1.4255
G3 X62.4208 Y0.3536 Z-1.4331 I0.0 J6.5875
G3 X82.5875 Y36.0358 Z-1.5241 I-21.4208 J35.6464
G2 X84.135 Y38.8965 Z-1.5313 I3.4125 J0.0029
G3 X65.0759 Y71.9077 Z-1.6543 I-10.4318 J15.9847
G2 X61.8247 Y71.9979 Z-1.6615 I-1.5424 J3.044
G3 X20.8397 Y72.3742 Z-1.7525 I-20.8247 J-35.9979
G3 X18.3282 Y69.9062 Z-1.7601 I3.1934 J-5.7617
G1 X12.7512 Y60.2467 Z-1.7838
G3 X13.1554 Y53.0418 Z-1.8 I5.7049 J-3.2937
G2 X12.3191 Y51.5932 Z-1.8045 I-0.7343 J-0.5418
G3 X5.8774 Y48.3408 Z-1.8207 I-0.7368 J-6.5462
G1 X0.3004 Y38.6813 Z-1.8444
G3 X-0.5811 Y35.2722 Z-1.852 I5.7049 J-3.2937
G3 X19.5792 Y0.3536 Z-1.9414 I41.5811 J0.7278
G3 X22.9722 Y-0.5875 Z-1.949 I3.3931 J5.6464
G1 X39.1625 Z-1.9833
G1 X44.8375 Z-1.9954
G1 X59.0278 Z-2.0255
G3 X62.4208 Y0.3536 Z-2.0331 I0.0 J6.5875
G3 X81.0051 Y24.6371 Z-2.0996 I-21.4208 J35.6464
G0 Z-2.0
G3 X82.1795 Y30.1892 I-40.0051 J11.3629
G1 F10.0 Z-2.1117
G3 F800.0 X82.5875 Y36.0358 Z-2.1241 I-41.1795 J5.8108
G2 X84.135 Y38.8965 Z-2.1313 I3.4125 J0.0029
G3 X65.0759 Y71.9077 Z-2.2543 I-10.4318 J15.9847
G2 X61.8247 Y71.9979 Z-2.2615 I-1.5424 J3.044
G3 X20.8397 Y72.3742 Z-2.3525 I-20.8247 J-35.9979
G3 X18.3282 Y69.9062 Z-2.3601 I3.1934 J-5.7617
G1 X16.3574 Y66.4928 Z-2.3685
G0 Z-2.0
G1 X13.5199 Y61.5781
G1 F10.0 Z-2.3805
G1 F800.0 X12.7512 Y60.2467 Z-2.3838
G3 X13.1554 Y53.0418 Z-2.4 I5.7049 J-3.2937
G2 X12.3191 Y51.5932 Z-2.4045 I-0.7343 J-0.5418
G3 X5.8774 Y48.3408 Z-2.4207 I-0.7368 J-6.5462
G1 X0.3004 Y38.6813 Z-2.4444
G3 X-0.5811 Y35.2722 Z-2.452 I5.7049 J-3.2937
G3 X19.5792 Y0.3536 Z-2.5414 I41.5811 J0.7278
G3 X22.9722 Y-0.5875 Z-2.549 I3.3931 J5.6464
G1 X39.1625 Z-2.5833
G0 Z-2.0
G1 X44.8375
G1 F10.0 Z-2.5954
G1 F800.0 X59.0278 Z-2.6255
G3 X62.4208 Y0.3536 Z-2.6331 I0.0 J6.5875
G3 X81.0051 Y24.6371 Z-2.6996 I-21.4208 J35.6464
G0 Z-2.0
G3 X82.1795 Y30.1892 I-40.0051 J11.3629
G1 F10.0 Z-2.7117
G3 F800.0 X82.5875 Y36.0358 Z-2.7241 I-41.1795 J5.8108
G2 X84.135 Y38.8965 Z-2.7313 I3.4125 J0.0029
G3 X65.0759 Y71.9077 Z-2.8543 I-10.4318 J15.9847
G2 X61.8247 Y71.9979 Z-2.8615 I-1.5424 J3.044
G3 X20.8397 Y72.3742 Z-2.9525 I-20.8247 J-35.9979
G3 X18.3282 Y69.9062 Z-2.9601 I3.1934 J-5.7617
G1 X16.3574 Y66.4928 Z-2.9685
G0 Z-2.0
G1 X13.5199 Y61.5781
G1 F10.0 Z-2.9805
G1 F800.0 X12.7512 Y60.2467 Z-2.9838
G3 X13.1554 Y53.0418 Z-3.0 I5.7049 J-3.2937
G2 X12.3191 Y51.5932 Z-3.0045 I-0.7343 J-0.5418
G3 X5.8774 Y48.3408 Z-3.0207 I-0.7368 J-6.5462
G1 X0.3004 Y38.6813 Z-3.0444
G3 X-0.5811 Y35.2722 Z-3.052 I5.7049 J-3.2937
G3 X19.5792 Y0.3536 Z-3.1414 I41.5811 J0.7278
G3 X22.9722 Y-0.5875 Z-3.149 I3.3931 J5.6464
G1 X39.1625 Z-3.1833
G0 Z-2.0
G1 X44.8375
G0 Z-2.0954
G1 F10.0 Z-3.1954
G1 F800.0 X59.0278 Z-3.2255
G3 X62.4208 Y0.3536 Z-3.2331 I0.0 J6.5875
G3 X81.0051 Y24.6371 Z-3.2996 I-21.4208 J35.6464
G0 Z-2.0
G3 X82.1795 Y30.1892 I-40.0051 J11.3629
G0 Z-2.2117
G1 F10.0 Z-3.3117
G3 F800.0 X82.5875 Y36.0358 Z-3.3241 I-41.1795 J5.8108
G2 X84.135 Y38.8965 Z-3.3313 I3.4125 J0.0029
G3 X65.0759 Y71.9077 Z-3.4543 I-10.4318 J15.9847
G2 X61.8247 Y71.9979 Z-3.4615 I-1.5424 J3.044
G3 X20.8397 Y72.3742 Z-3.5525 I-20.8247 J-35.9979
G3 X18.3282 Y69.9062 Z-3.5601 I3.1934 J-5.7617
G1 X16.3574 Y66.4928 Z-3.5685
G0 Z-2.0
G1 X13.5199 Y61.5781
G0 Z-2.4805
G1 F10.0 Z-3.5805
G1 F800.0 X12.7512 Y60.2467 Z-3.5838
G3 X13.1554 Y53.0418 Z-3.6 I5.7049 J-3.2937
G2 X12.3191 Y51.5932 I-0.7343 J-0.5418
G3 X5.8774 Y48.3408 I-0.7368 J-6.5462
G1 X0.3004 Y38.6813
G3 X-0.5811 Y35.2722 I5.7049 J-3.2937
G3 X19.5792 Y0.3536 I41.5811 J0.7278
G3 X22.9722 Y-0.5875 I3.3931 J5.6464
G1 X39.1625
G0 Z-2.0
G1 X44.8375
G0 Z-2.6954
G1 F10.0 Z-3.6
G1 F800.0 X59.0278
G3 X62.4208 Y0.3536 I0.0 J6.5875
G3 X81.0051 Y24.6371 I-21.4208 J35.6464
G0 Z-2.0
G3 X82.1795 Y30.1892 I-40.0051 J11.3629
G0 Z-2.8117
G1 F10.0 Z-3.6
G3 F800.0 X82.5875 Y36.0358 I-41.1795 J5.8108
G2 X84.135 Y38.8965 I3.4125 J0.0029
G3 X65.0759 Y71.9077 I-10.4318 J15.9847
G2 X61.8247 Y71.9979 I-1.5424 J3.044
G3 X20.8397 Y72.3742 I-20.8247 J-35.9979
G3 X18.3282 Y69.9062 I3.1934 J-5.7617
G1 X16.3574 Y66.4928
G0 Z-2.0
G1 X13.5199 Y61.5781
G0 Z-3.0805
G1 F10.0 Z-3.6
G1 F800.0 X12.7512 Y60.2467
G3 X13.1554 Y53.0418 I5.7049 J-3.2937
G0 Z2.0
M5
M30
