( Made using CamBam - http://www.cambam.co.uk )
( Power Supply Mount 10/18/2015 2:59:17 PM )
( T0 : 3.175 )
G21 G90 G64 G40
G0 Z2.0
( T0 : 3.175 )
T0 M6
( Bolt Holes )
G17
M3 S1000
G0 X79.0125 Y16.825
G1 F7.0 Z0.0
G2 F450.0 X77.4938 Y15.9481 Z-0.1333 I-1.0125 J0.0
G2 Y17.7019 Z-0.2667 I0.5062 J0.8769
G2 X79.0125 Y16.825 Z-0.4 I0.5062 J-0.8769
G2 X77.4938 Y15.9481 Z-0.5333 I-1.0125 J0.0
G2 Y17.7019 Z-0.6667 I0.5062 J0.8769
G2 X79.0125 Y16.825 Z-0.8 I0.5062 J-0.8769
G2 X77.4938 Y15.9481 Z-0.9333 I-1.0125 J0.0
G2 Y17.7019 Z-1.0667 I0.5062 J0.8769
G2 X79.0125 Y16.825 Z-1.2 I0.5062 J-0.8769
G2 X77.4938 Y15.9481 Z-1.3333 I-1.0125 J0.0
G2 Y17.7019 Z-1.4667 I0.5062 J0.8769
G2 X79.0125 Y16.825 Z-1.6 I0.5062 J-0.8769
G2 X77.4938 Y15.9481 Z-1.7333 I-1.0125 J0.0
G2 Y17.7019 Z-1.8667 I0.5062 J0.8769
G2 X79.0125 Y16.825 Z-2.0 I0.5062 J-0.8769
G2 X77.4938 Y15.9481 Z-2.1333 I-1.0125 J0.0
G2 Y17.7019 Z-2.2667 I0.5062 J0.8769
G2 X79.0125 Y16.825 Z-2.4 I0.5062 J-0.8769
G2 X77.4938 Y15.9481 Z-2.5333 I-1.0125 J0.0
G2 Y17.7019 Z-2.6667 I0.5062 J0.8769
G2 X79.0125 Y16.825 Z-2.8 I0.5062 J-0.8769
G2 X77.4938 Y15.9481 Z-2.9333 I-1.0125 J0.0
G2 Y17.7019 Z-3.0667 I0.5062 J0.8769
G2 X79.0125 Y16.825 Z-3.2 I0.5062 J-0.8769
G2 X77.4938 Y15.9481 Z-3.3 I-1.0125 J0.0
G2 Y17.7019 Z-3.4 I0.5062 J0.8769
G2 X79.0125 Y16.825 Z-3.5 I0.5062 J-0.8769
G2 X77.4938 Y15.9481 I-1.0125 J0.0
G2 Y17.7019 I0.5062 J0.8769
G2 X79.0125 Y16.825 I0.5062 J-0.8769
G0 Z2.0
G0 X102.8075 Y75.525
G1 F7.0 Z0.0
G2 F450.0 X102.7438 Y75.5562 Z-0.0088 I0.1925 J0.475
G2 Y76.4438 Z-0.1421 I0.2563 J0.4438
G2 X103.5125 Y76.0 Z-0.2755 I0.2563 J-0.4438
G2 X102.8075 Y75.525 Z-0.4 I-0.5125 J0.0
G2 X102.7438 Y75.5562 Z-0.4088 I0.1925 J0.475
G2 Y76.4438 Z-0.5421 I0.2563 J0.4438
G2 X103.5125 Y76.0 Z-0.6755 I0.2563 J-0.4438
G2 X102.8075 Y75.525 Z-0.8 I-0.5125 J0.0
G2 X102.7438 Y75.5562 Z-0.8088 I0.1925 J0.475
G2 Y76.4438 Z-0.9421 I0.2563 J0.4438
G2 X103.5125 Y76.0 Z-1.0755 I0.2563 J-0.4438
G2 X102.8075 Y75.525 Z-1.2 I-0.5125 J0.0
G2 X102.7438 Y75.5562 Z-1.2088 I0.1925 J0.475
G2 Y76.4438 Z-1.3421 I0.2563 J0.4438
G2 X103.5125 Y76.0 Z-1.4755 I0.2563 J-0.4438
G2 X102.8075 Y75.525 Z-1.6 I-0.5125 J0.0
G2 X102.7438 Y75.5562 Z-1.6088 I0.1925 J0.475
G2 Y76.4438 Z-1.7421 I0.2563 J0.4438
G2 X103.5125 Y76.0 Z-1.8755 I0.2563 J-0.4438
G2 X102.8075 Y75.525 Z-2.0 I-0.5125 J0.0
G2 X102.7438 Y75.5562 Z-2.0088 I0.1925 J0.475
G2 Y76.4438 Z-2.1421 I0.2563 J0.4438
G2 X103.5125 Y76.0 Z-2.2755 I0.2563 J-0.4438
G2 X102.8075 Y75.525 Z-2.4 I-0.5125 J0.0
G2 X102.7438 Y75.5562 Z-2.4088 I0.1925 J0.475
G2 Y76.4438 Z-2.5421 I0.2563 J0.4438
G2 X103.5125 Y76.0 Z-2.6755 I0.2563 J-0.4438
G2 X102.8075 Y75.525 Z-2.8 I-0.5125 J0.0
G2 X102.7438 Y75.5562 Z-2.8088 I0.1925 J0.475
G2 Y76.4438 Z-2.9421 I0.2563 J0.4438
G2 X103.5125 Y76.0 Z-3.0755 I0.2563 J-0.4438
G2 X102.8075 Y75.525 Z-3.2 I-0.5125 J0.0
G2 X102.7438 Y75.5562 Z-3.2066 I0.1925 J0.475
G2 Y76.4438 Z-3.3066 I0.2563 J0.4438
G2 X103.5125 Y76.0 Z-3.4066 I0.2563 J-0.4438
G2 X102.8075 Y75.525 Z-3.5 I-0.5125 J0.0
G2 X102.7438 Y75.5562 I0.1925 J0.475
G2 Y76.4438 I0.2563 J0.4438
G2 X103.5125 Y76.0 I0.2563 J-0.4438
G2 X102.8075 Y75.525 I-0.5125 J0.0
G0 Z2.0
G0 X144.3234 Y57.2332
G1 F7.0 Z0.0
G2 F450.0 X144.7438 Y57.7019 Z-0.0402 I0.9266 J-0.4082
G2 X146.2625 Y56.825 Z-0.1736 I0.5062 J-0.8769
G2 X144.7438 Y55.9481 Z-0.3069 I-1.0125 J0.0
G2 X144.3234 Y57.2332 Z-0.4 I0.5063 J0.8769
G2 X144.7438 Y57.7019 Z-0.4402 I0.9266 J-0.4082
G2 X146.2625 Y56.825 Z-0.5736 I0.5062 J-0.8769
G2 X144.7438 Y55.9481 Z-0.7069 I-1.0125 J0.0
G2 X144.3234 Y57.2332 Z-0.8 I0.5063 J0.8769
G2 X144.7438 Y57.7019 Z-0.8402 I0.9266 J-0.4082
G2 X146.2625 Y56.825 Z-0.9736 I0.5062 J-0.8769
G2 X144.7438 Y55.9481 Z-1.1069 I-1.0125 J0.0
G2 X144.3234 Y57.2332 Z-1.2 I0.5063 J0.8769
G2 X144.7438 Y57.7019 Z-1.2402 I0.9266 J-0.4082
G2 X146.2625 Y56.825 Z-1.3736 I0.5062 J-0.8769
G2 X144.7438 Y55.9481 Z-1.5069 I-1.0125 J0.0
G2 X144.3234 Y57.2332 Z-1.6 I0.5063 J0.8769
G2 X144.7438 Y57.7019 Z-1.6402 I0.9266 J-0.4082
G2 X146.2625 Y56.825 Z-1.7736 I0.5062 J-0.8769
G2 X144.7438 Y55.9481 Z-1.9069 I-1.0125 J0.0
G2 X144.3234 Y57.2332 Z-2.0 I0.5063 J0.8769
G2 X144.7438 Y57.7019 Z-2.0402 I0.9266 J-0.4082
G2 X146.2625 Y56.825 Z-2.1736 I0.5062 J-0.8769
G2 X144.7438 Y55.9481 Z-2.3069 I-1.0125 J0.0
G2 X144.3234 Y57.2332 Z-2.4 I0.5063 J0.8769
G2 X144.7438 Y57.7019 Z-2.4402 I0.9266 J-0.4082
G2 X146.2625 Y56.825 Z-2.5736 I0.5062 J-0.8769
G2 X144.7438 Y55.9481 Z-2.7069 I-1.0125 J0.0
G2 X144.3234 Y57.2332 Z-2.8 I0.5063 J0.8769
G2 X144.7438 Y57.7019 Z-2.8402 I0.9266 J-0.4082
G2 X146.2625 Y56.825 Z-2.9736 I0.5062 J-0.8769
G2 X144.7438 Y55.9481 Z-3.1069 I-1.0125 J0.0
G2 X144.3234 Y57.2332 Z-3.2 I0.5063 J0.8769
G2 X144.7438 Y57.7019 Z-3.2302 I0.9266 J-0.4082
G2 X146.2625 Y56.825 Z-3.3302 I0.5062 J-0.8769
G2 X144.7438 Y55.9481 Z-3.4302 I-1.0125 J0.0
G2 X144.3234 Y57.2332 Z-3.5 I0.5063 J0.8769
G2 X144.7438 Y57.7019 I0.9266 J-0.4082
G2 X146.2625 Y56.825 I0.5062 J-0.8769
G2 X144.7438 Y55.9481 I-1.0125 J0.0
G2 X144.3234 Y57.2332 I0.5063 J0.8769
G0 Z2.0
G0 X53.502 Y75.8968
G1 F7.0 Z0.0
G2 F450.0 X52.7438 Y75.5562 Z-0.1204 I-0.502 J0.1032
G2 Y76.4438 Z-0.2538 I0.2563 J0.4438
G2 X53.5125 Y76.0 Z-0.3871 I0.2563 J-0.4438
G2 X53.502 Y75.8968 Z-0.4 I-0.5125 J0.0
G2 X52.7438 Y75.5562 Z-0.5204 I-0.502 J0.1032
G2 Y76.4438 Z-0.6538 I0.2563 J0.4438
G2 X53.5125 Y76.0 Z-0.7871 I0.2563 J-0.4438
G2 X53.502 Y75.8968 Z-0.8 I-0.5125 J0.0
G2 X52.7438 Y75.5562 Z-0.9204 I-0.502 J0.1032
G2 Y76.4438 Z-1.0538 I0.2563 J0.4438
G2 X53.5125 Y76.0 Z-1.1871 I0.2563 J-0.4438
G2 X53.502 Y75.8968 Z-1.2 I-0.5125 J0.0
G2 X52.7438 Y75.5562 Z-1.3204 I-0.502 J0.1032
G2 Y76.4438 Z-1.4538 I0.2563 J0.4438
G2 X53.5125 Y76.0 Z-1.5871 I0.2563 J-0.4438
G2 X53.502 Y75.8968 Z-1.6 I-0.5125 J0.0
G2 X52.7438 Y75.5562 Z-1.7204 I-0.502 J0.1032
G2 Y76.4438 Z-1.8538 I0.2563 J0.4438
G2 X53.5125 Y76.0 Z-1.9871 I0.2563 J-0.4438
G2 X53.502 Y75.8968 Z-2.0 I-0.5125 J0.0
G2 X52.7438 Y75.5562 Z-2.1204 I-0.502 J0.1032
G2 Y76.4438 Z-2.2538 I0.2563 J0.4438
G2 X53.5125 Y76.0 Z-2.3871 I0.2563 J-0.4438
G2 X53.502 Y75.8968 Z-2.4 I-0.5125 J0.0
G2 X52.7438 Y75.5562 Z-2.5204 I-0.502 J0.1032
G2 Y76.4438 Z-2.6538 I0.2563 J0.4438
G2 X53.5125 Y76.0 Z-2.7871 I0.2563 J-0.4438
G2 X53.502 Y75.8968 Z-2.8 I-0.5125 J0.0
G2 X52.7438 Y75.5562 Z-2.9204 I-0.502 J0.1032
G2 Y76.4438 Z-3.0538 I0.2563 J0.4438
G2 X53.5125 Y76.0 Z-3.1871 I0.2563 J-0.4438
G2 X53.502 Y75.8968 Z-3.2 I-0.5125 J0.0
G2 X52.7438 Y75.5562 Z-3.2903 I-0.502 J0.1032
G2 Y76.4438 Z-3.3903 I0.2563 J0.4438
G2 X53.5125 Y76.0 Z-3.4903 I0.2563 J-0.4438
G2 X53.502 Y75.8968 Z-3.5 I-0.5125 J0.0
G2 X52.7438 Y75.5562 I-0.502 J0.1032
G2 Y76.4438 I0.2563 J0.4438
G2 X53.5125 Y76.0 I0.2563 J-0.4438
G2 X53.502 Y75.8968 I-0.5125 J0.0
G0 Z2.0
G0 X11.6747 Y57.2375
G1 F7.0 Z0.0
G2 F450.0 X11.7625 Y56.825 Z-0.0267 I-0.9247 J-0.4125
G2 X10.2438 Y55.9481 Z-0.16 I-1.0125 J0.0
G2 Y57.7019 Z-0.2934 I0.5063 J0.8769
G2 X11.6747 Y57.2375 Z-0.4 I0.5063 J-0.8769
G2 X11.7625 Y56.825 Z-0.4267 I-0.9247 J-0.4125
G2 X10.2438 Y55.9481 Z-0.56 I-1.0125 J0.0
G2 Y57.7019 Z-0.6934 I0.5063 J0.8769
G2 X11.6747 Y57.2375 Z-0.8 I0.5063 J-0.8769
G2 X11.7625 Y56.825 Z-0.8267 I-0.9247 J-0.4125
G2 X10.2438 Y55.9481 Z-0.96 I-1.0125 J0.0
G2 Y57.7019 Z-1.0934 I0.5063 J0.8769
G2 X11.6747 Y57.2375 Z-1.2 I0.5063 J-0.8769
G2 X11.7625 Y56.825 Z-1.2267 I-0.9247 J-0.4125
G2 X10.2438 Y55.9481 Z-1.36 I-1.0125 J0.0
G2 Y57.7019 Z-1.4934 I0.5063 J0.8769
G2 X11.6747 Y57.2375 Z-1.6 I0.5063 J-0.8769
G2 X11.7625 Y56.825 Z-1.6267 I-0.9247 J-0.4125
G2 X10.2438 Y55.9481 Z-1.76 I-1.0125 J0.0
G2 Y57.7019 Z-1.8934 I0.5063 J0.8769
G2 X11.6747 Y57.2375 Z-2.0 I0.5063 J-0.8769
G2 X11.7625 Y56.825 Z-2.0267 I-0.9247 J-0.4125
G2 X10.2438 Y55.9481 Z-2.16 I-1.0125 J0.0
G2 Y57.7019 Z-2.2934 I0.5063 J0.8769
G2 X11.6747 Y57.2375 Z-2.4 I0.5063 J-0.8769
G2 X11.7625 Y56.825 Z-2.4267 I-0.9247 J-0.4125
G2 X10.2438 Y55.9481 Z-2.56 I-1.0125 J0.0
G2 Y57.7019 Z-2.6934 I0.5063 J0.8769
G2 X11.6747 Y57.2375 Z-2.8 I0.5063 J-0.8769
G2 X11.7625 Y56.825 Z-2.8267 I-0.9247 J-0.4125
G2 X10.2438 Y55.9481 Z-2.96 I-1.0125 J0.0
G2 Y57.7019 Z-3.0934 I0.5063 J0.8769
G2 X11.6747 Y57.2375 Z-3.2 I0.5063 J-0.8769
G2 X11.7625 Y56.825 Z-3.22 I-0.9247 J-0.4125
G2 X10.2438 Y55.9481 Z-3.32 I-1.0125 J0.0
G2 Y57.7019 Z-3.42 I0.5063 J0.8769
G2 X11.6747 Y57.2375 Z-3.5 I0.5063 J-0.8769
G2 X11.7625 Y56.825 I-0.9247 J-0.4125
G2 X10.2438 Y55.9481 I-1.0125 J0.0
G2 Y57.7019 I0.5063 J0.8769
G2 X11.6747 Y57.2375 I0.5063 J-0.8769
( Outside )
S1000
G0 Z2.0
G0 X41.4125 Y98.0
G1 F6.0 Z0.0
G1 F700.0 Y74.825 Z-0.0285
G2 X35.0 Y68.4125 Z-0.0409 I-6.4125 J0.0
G1 X8.75 Z-0.0731
G3 X-0.8375 Y58.825 Z-0.0916 I0.0 J-9.5875
G1 Y54.825 Z-0.0966
G3 X8.75 Y45.2375 Z-0.1151 I9.5875 J0.0
G1 X12.75 Z-0.12
G2 X19.1625 Y38.825 Z-0.1324 I0.0 J-6.4125
G1 Y8.825 Z-0.1692
G3 X28.75 Y-0.7625 Z-0.1878 I9.5875 J0.0
G1 X127.25 Z-0.3088
G3 X136.8375 Y8.825 Z-0.3273 I0.0 J9.5875
G1 Y38.825 Z-0.3642
G2 X143.25 Y45.2375 Z-0.3766 I6.4125 J0.0
G1 X147.25 Z-0.3815
G3 X156.8375 Y54.825 Z-0.4 I0.0 J9.5875
G1 Y58.825 Z-0.405
G3 X147.25 Y68.4125 Z-0.4235 I-9.5875 J0.0
G1 X121.0 Z-0.4557
G2 X114.5875 Y74.825 Z-0.4681 I0.0 J6.4125
G1 Y98.0 Z-0.4966
G3 X105.0 Y107.5875 Z-0.5151 I-9.5875 J0.0
G1 X51.0 Z-0.5815
G3 X41.4125 Y98.0 Z-0.6 I0.0 J-9.5875
G1 Y74.825 Z-0.6285
G2 X35.0 Y68.4125 Z-0.6409 I-6.4125 J0.0
G1 X8.75 Z-0.6731
G3 X-0.8375 Y58.825 Z-0.6916 I0.0 J-9.5875
G1 Y54.825 Z-0.6966
G3 X8.75 Y45.2375 Z-0.7151 I9.5875 J0.0
G1 X12.75 Z-0.72
G2 X19.1625 Y38.825 Z-0.7324 I0.0 J-6.4125
G1 Y8.825 Z-0.7692
G3 X28.75 Y-0.7625 Z-0.7878 I9.5875 J0.0
G1 X127.25 Z-0.9088
G3 X136.8375 Y8.825 Z-0.9273 I0.0 J9.5875
G1 Y38.825 Z-0.9642
G2 X143.25 Y45.2375 Z-0.9766 I6.4125 J0.0
G1 X147.25 Z-0.9815
G3 X156.8375 Y54.825 Z-1.0 I0.0 J9.5875
G1 Y58.825 Z-1.005
G3 X147.25 Y68.4125 Z-1.0235 I-9.5875 J0.0
G1 X121.0 Z-1.0557
G2 X114.5875 Y74.825 Z-1.0681 I0.0 J6.4125
G1 Y98.0 Z-1.0966
G3 X105.0 Y107.5875 Z-1.1151 I-9.5875 J0.0
G1 X51.0 Z-1.1815
G3 X41.4125 Y98.0 Z-1.2 I0.0 J-9.5875
G1 Y74.825 Z-1.2285
G2 X35.0 Y68.4125 Z-1.2409 I-6.4125 J0.0
G1 X8.75 Z-1.2731
G3 X-0.8375 Y58.825 Z-1.2916 I0.0 J-9.5875
G1 Y54.825 Z-1.2966
G3 X8.75 Y45.2375 Z-1.3151 I9.5875 J0.0
G1 X12.75 Z-1.32
G2 X19.1625 Y38.825 Z-1.3324 I0.0 J-6.4125
G1 Y8.825 Z-1.3692
G3 X28.75 Y-0.7625 Z-1.3878 I9.5875 J0.0
G1 X127.25 Z-1.5088
G3 X136.8375 Y8.825 Z-1.5273 I0.0 J9.5875
G1 Y38.825 Z-1.5642
G2 X143.25 Y45.2375 Z-1.5766 I6.4125 J0.0
G1 X147.25 Z-1.5815
G3 X156.8375 Y54.825 Z-1.6 I0.0 J9.5875
G1 Y58.825 Z-1.605
G3 X147.25 Y68.4125 Z-1.6235 I-9.5875 J0.0
G1 X121.0 Z-1.6557
G2 X114.5875 Y74.825 Z-1.6681 I0.0 J6.4125
G1 Y98.0 Z-1.6966
G3 X105.0 Y107.5875 Z-1.7151 I-9.5875 J0.0
G1 X51.0 Z-1.7815
G3 X41.4125 Y98.0 Z-1.8 I0.0 J-9.5875
G1 Y74.825 Z-1.8285
G2 X35.0 Y68.4125 Z-1.8409 I-6.4125 J0.0
G1 X8.75 Z-1.8731
G3 X-0.8375 Y58.825 Z-1.8916 I0.0 J-9.5875
G1 Y54.825 Z-1.8966
G3 X8.75 Y45.2375 Z-1.9151 I9.5875 J0.0
G1 X12.75 Z-1.92
G2 X19.1625 Y38.825 Z-1.9324 I0.0 J-6.4125
G1 Y34.8375 Z-1.9373
G1 Y29.1625 Z-1.9443
G1 Y8.825 Z-1.9692
G3 X28.75 Y-0.7625 Z-1.9878 I9.5875 J0.0
G1 X114.1625 Z-2.0928
G0 Z-2.0
G1 X119.8375
G1 F6.0 Z-2.0997
G1 F700.0 X127.25 Z-2.1088
G3 X136.8375 Y8.825 Z-2.1273 I0.0 J9.5875
G1 Y38.825 Z-2.1642
G2 X143.25 Y45.2375 Z-2.1766 I6.4125 J0.0
G1 X147.25 Z-2.1815
G3 X156.8375 Y54.825 Z-2.2 I0.0 J9.5875
G1 Y58.825 Z-2.205
G3 X147.25 Y68.4125 Z-2.2235 I-9.5875 J0.0
G1 X121.0 Z-2.2557
G2 X114.5875 Y74.825 Z-2.2681 I0.0 J6.4125
G1 Y84.1625 Z-2.2796
G0 Z-2.0
G1 Y89.8375
G1 F6.0 Z-2.2866
G1 F700.0 Y98.0 Z-2.2966
G3 X105.0 Y107.5875 Z-2.3151 I-9.5875 J0.0
G1 X51.0 Z-2.3815
G3 X41.4125 Y98.0 Z-2.4 I0.0 J-9.5875
G1 Y74.825 Z-2.4285
G2 X35.0 Y68.4125 Z-2.4409 I-6.4125 J0.0
G1 X8.75 Z-2.4731
G3 X-0.8375 Y58.825 Z-2.4916 I0.0 J-9.5875
G1 Y54.825 Z-2.4966
G3 X8.75 Y45.2375 Z-2.5151 I9.5875 J0.0
G1 X12.75 Z-2.52
G2 X19.1625 Y38.825 Z-2.5324 I0.0 J-6.4125
G1 Y34.8375 Z-2.5373
G0 Z-2.0
G1 Y29.1625
G1 F6.0 Z-2.5443
G1 F700.0 Y8.825 Z-2.5692
G3 X28.75 Y-0.7625 Z-2.5878 I9.5875 J0.0
G1 X114.1625 Z-2.6928
G0 Z-2.0
G1 X119.8375
G1 F6.0 Z-2.6997
G1 F700.0 X127.25 Z-2.7088
G3 X136.8375 Y8.825 Z-2.7273 I0.0 J9.5875
G1 Y38.825 Z-2.7642
G2 X143.25 Y45.2375 Z-2.7766 I6.4125 J0.0
G1 X147.25 Z-2.7815
G3 X156.8375 Y54.825 Z-2.8 I0.0 J9.5875
G1 Y58.825 Z-2.805
G3 X147.25 Y68.4125 Z-2.8235 I-9.5875 J0.0
G1 X121.0 Z-2.8557
G2 X114.5875 Y74.825 Z-2.8681 I0.0 J6.4125
G1 Y84.1625 Z-2.8796
G0 Z-2.0
G1 Y89.8375
G1 F6.0 Z-2.8866
G1 F700.0 Y98.0 Z-2.8966
G3 X105.0 Y107.5875 Z-2.9151 I-9.5875 J0.0
G1 X51.0 Z-2.9815
G3 X41.4125 Y98.0 Z-3.0 I0.0 J-9.5875
G1 Y74.825 Z-3.0285
G2 X35.0 Y68.4125 Z-3.0409 I-6.4125 J0.0
G1 X8.75 Z-3.0731
G3 X-0.8375 Y58.825 Z-3.0916 I0.0 J-9.5875
G1 Y54.825 Z-3.0966
G3 X8.75 Y45.2375 Z-3.1151 I9.5875 J0.0
G1 X12.75 Z-3.12
G2 X19.1625 Y38.825 Z-3.1324 I0.0 J-6.4125
G1 Y34.8375 Z-3.1373
G0 Z-2.0
G1 Y29.1625
G1 F6.0 Z-3.1443
G1 F700.0 Y8.825 Z-3.1692
G3 X28.75 Y-0.7625 Z-3.1878 I9.5875 J0.0
G1 X114.1625 Z-3.2928
G0 Z-2.0
G1 X119.8375
G1 F6.0 Z-3.2997
G1 F700.0 X127.25 Z-3.3088
G3 X136.8375 Y8.825 Z-3.3273 I0.0 J9.5875
G1 Y38.825 Z-3.3642
G2 X143.25 Y45.2375 Z-3.3766 I6.4125 J0.0
G1 X147.25 Z-3.3815
G3 X156.8375 Y54.825 Z-3.4 I0.0 J9.5875
G1 Y58.825 Z-3.405
G3 X147.25 Y68.4125 Z-3.4235 I-9.5875 J0.0
G1 X121.0 Z-3.4557
G2 X114.5875 Y74.825 Z-3.4681 I0.0 J6.4125
G1 Y84.1625 Z-3.4796
G0 Z-2.0
G1 Y89.8375
G1 F6.0 Z-3.4866
G1 F700.0 Y98.0 Z-3.4966
G3 X105.0 Y107.5875 Z-3.5151 I-9.5875 J0.0
G1 X51.0 Z-3.5815
G3 X41.4125 Y98.0 Z-3.6 I0.0 J-9.5875
G1 Y74.825
G2 X35.0 Y68.4125 I-6.4125 J0.0
G1 X8.75
G3 X-0.8375 Y58.825 I0.0 J-9.5875
G1 Y54.825
G3 X8.75 Y45.2375 I9.5875 J0.0
G1 X12.75
G2 X19.1625 Y38.825 I0.0 J-6.4125
G1 Y34.8375
G0 Z-2.0
G1 Y29.1625
G1 F6.0 Z-3.6
G1 F700.0 Y8.825
G3 X28.75 Y-0.7625 I9.5875 J0.0
G1 X114.1625
G0 Z-2.0
G1 X119.8375
G1 F6.0 Z-3.6
G1 F700.0 X127.25
G3 X136.8375 Y8.825 I0.0 J9.5875
G1 Y38.825
G2 X143.25 Y45.2375 I6.4125 J0.0
G1 X147.25
G3 X156.8375 Y54.825 I0.0 J9.5875
G1 Y58.825
G3 X147.25 Y68.4125 I-9.5875 J0.0
G1 X121.0
G2 X114.5875 Y74.825 I0.0 J6.4125
G1 Y84.1625
G0 Z-2.0
G1 Y89.8375
G1 F6.0 Z-3.6
G1 F700.0 Y98.0
G3 X105.0 Y107.5875 I-9.5875 J0.0
G1 X51.0
G3 X41.4125 Y98.0 I0.0 J-9.5875
G0 Z2.0
M5
M30
